Sources/FrostedUI/Resources/Icons.xcassets/checklist16.imageset/checklist-16.svg

<svg width="16" height="16" viewBox="0 0 16 16" fill="none" xmlns="http://www.w3.org/2000/svg" data-fui-icon="true">
  <path
    d="M9 7.5C8.58579 7.5 8.25 7.83579 8.25 8.25 8.25 8.66421 8.58579 9 9 9H10.75C11.1643 9 11.5 8.66421 11.5 8.25 11.5 7.83579 11.1643 7.5 10.75 7.5H9zM7.73014 6.67383C8.04835 6.93901 8.09134 7.41193 7.82617 7.73014L6.57617 9.23014C6.44127 9.39202 6.24449 9.48968 6.03399 9.49923 5.82348 9.50878 5.61867 9.42933 5.46967 9.28033L4.71967 8.53033C4.42678 8.23744 4.42678 7.76256 4.71967 7.46967 5.01256 7.17678 5.48744 7.17678 5.78033 7.46967L5.9496 7.63894 6.67383 6.76986C6.93901 6.45165 7.41193 6.40866 7.73014 6.67383zM9 11C8.58579 11 8.25 11.3358 8.25 11.75 8.25 12.1642 8.58579 12.5 9 12.5H10.75C11.1643 12.5 11.5 12.1642 11.5 11.75 11.5 11.3358 11.1643 11 10.75 11H9zM7.73014 10.1738C8.04835 10.439 8.09134 10.9119 7.82617 11.2301L6.57617 12.7301C6.44127 12.892 6.24449 12.9897 6.03399 12.9992 5.82348 13.0088 5.61867 12.9293 5.46967 12.7803L4.71967 12.0303C4.42678 11.7374 4.42678 11.2626 4.71967 10.9697 5.01256 10.6768 5.48744 10.6768 5.78033 10.9697L5.9496 11.1389 6.67383 10.2699C6.93901 9.95165 7.41193 9.90866 7.73014 10.1738z"
    fill="currentColor"
  />
  <path
    fill-rule="evenodd"
    clip-rule="evenodd"
    d="M7.64798 0.5C7.22265 0.5 6.8265 0.716275 6.5965 1.07405L6.32268 1.5H5.50049C4.89651 1.5 4.39099 1.92884 4.27501 2.5H4C2.89543 2.5 2 3.39543 2 4.5V14C2 15.1046 2.89543 16 4 16H12C13.1046 16 14 15.1046 14 14V4.5C14 3.39543 13.1046 2.5 12 2.5H11.725C11.609 1.92884 11.1035 1.5 10.4995 1.5H9.67732L9.4035 1.07405C9.1735 0.716275 8.77735 0.5 8.35202 0.5H7.64798ZM7.37854 2.63143L7.78446 2H8.21554L8.62146 2.63143C8.7563 2.85974 9.0018 3 9.26722 3H10.25V4H5.75V3H6.73278C6.9982 3 7.2437 2.85973 7.37854 2.63143ZM12.5 4.5C12.5 4.22386 12.2761 4 12 4H11.75V4.25C11.75 4.94036 11.1904 5.5 10.5 5.5H5.5C4.80964 5.5 4.25 4.94036 4.25 4.25V4H4C3.72386 4 3.5 4.22386 3.5 4.5V14C3.5 14.2761 3.72386 14.5 4 14.5H12C12.2761 14.5 12.5 14.2761 12.5 14V4.5Z"
    fill="currentColor"
  />
</svg>

<svg xmlns="http://www.w3.org/2000/svg" width="16" height="16" fill="none" data-fui-icon="true" viewBox="0 0 16 16"><path fill="currentColor" d="M9 7.5A.75.75 0 0 0 9 9h1.75a.75.75 0 1 0 0-1.5zm-1.27-.826a.75.75 0 0 1 .096 1.056l-1.25 1.5a.75.75 0 0 1-1.106.05l-.75-.75a.75.75 0 0 1 1.06-1.06l.17.169.724-.87a.75.75 0 0 1 1.056-.095M9 11a.75.75 0 0 0 0 1.5h1.75a.75.75 0 1 0 0-1.5zm-1.27-.826a.75.75 0 0 1 .096 1.056l-1.25 1.5a.75.75 0 0 1-1.106.05l-.75-.75a.75.75 0 1 1 1.06-1.06l.17.169.724-.87a.75.75 0 0 1 1.056-.095"/><path fill="currentColor" fill-rule="evenodd" d="M7.648.5a1.25 1.25 0 0 0-1.051.574l-.274.426H5.5c-.603 0-1.109.429-1.225 1H4a2 2 0 0 0-2 2V14a2 2 0 0 0 2 2h8a2 2 0 0 0 2-2V4.5a2 2 0 0 0-2-2h-.275c-.116-.571-.621-1-1.226-1h-.822l-.274-.426A1.25 1.25 0 0 0 8.353.5zm-.27 2.131L7.785 2h.432l.405.631A.75.75 0 0 0 9.267 3h.983v1h-4.5V3h.983a.75.75 0 0 0 .646-.369M12.5 4.5A.5.5 0 0 0 12 4h-.25v.25c0 .69-.56 1.25-1.25 1.25h-5c-.69 0-1.25-.56-1.25-1.25V4H4a.5.5 0 0 0-.5.5V14a.5.5 0 0 0 .5.5h8a.5.5 0 0 0 .5-.5z" clip-rule="evenodd"/></svg>
